X: 10581
M: C
L: 1/8
K: D
e4 cAce | A2g>f e/f/e/d/ c/d/c/B/ |\
ef/e/ de/d/ c2^g2 | a2a>a a2 :|
|: A>A |\
d2d>c Bcde | f2fe/d/ cdef |\
g2A>A A2a>a | ag/f/ e/d/c/B/ AAff |\
|: "^Bugle."d>d |\
d2d>d c>Bc>f | d2B>B B2cd |\
e2e>e d>cd>e | d2c>c c2de |\
f4 g2ab | adcd g2f>g |\
f2e2 d2c2 | B2B>B B2"^D.C."A>A :|


